X:2
T:Medley
T:(Lead Hulusi in Bb)
C:Traditional
C:Arranged by 罗子俊
L:1/8
%%barnumbers 0
%%measurenb 0
V:1 clef=treble
%%jianpu 1
%%MIDI program 5
K:Cmaj
Q:1/4=160
M:4/4
E2 E2 E2 E2 | D2 D2 D4 | C2 C2 C2 C2 | E8 |
A,2 A,2 A,2 A,2 | G,2 G,2 C4 | B,2 C2 D2 E2 | D8 |
E2 E2 E2 E2 | D2 D2 D4 | C2 C2 C2 C2 | E8 |
A,2 A,2 A,2 A,2 | G,2 G,2 C4 | D2 C2 D2 E2 | C4 B,4 ||
M:3/4
A,4 [Q:1/4=80] G,2 | C4 EC | E4 D2 | C4 (3A,CA, | G,4 G,2 | C4 EC | 
E4 D2 | G6- | G4 E2 | G3 E GE | C4 G,2 |
A,3 C CA, | G,4 G,2 | C4 EC | E4 D2 | C6- ||
C4 G,2 | CG,CDEC | EG,B,EDA, | 
CECG,CA, | G,4 G,D | CG,A,CEC | 
ECB,A,G,D | GAGECE | G4 E2 | 
GDCECA, | CA,G,A,G,C |
A,DEGCA, | G,4 G,2 | 
C4 EC | E4 D2 | C4 D2 ||
M:4/4
K:Gmaj
C3 D G,2 C/2A,/2G,/2A,/2 | [Q:1/4=160] B,2 D2 D3 E | D2 B,A, G,2 G,A, | B,2 B,2 A,2 G,2 | A,6 G,A, | 
B,2 D2 D3 E | D2 B,A, G,2 G,A, | B,2 B,2 A,2 A,2 | G,8 | 
C4 C3 D | E2 E4 E2 | D2 D2 B,2 G,2 | A,6 G,A, | 
B,2 D2 D3 E | D2 B,A, G,2 G,A, | B,2 B,2 A,2 A,2 | G,4 z4 |]

